X: 32331
T: Pilib Ruadh
R: waltz
M: 3/4
K: Dminor
G2 GFGA|G2 GFGA|c2 cAGA|F2 FGAF|
G2 GFGA|G2 GFGA|dcAG AF|1 G3 DFA:|2 G4 Ac||
feec de|eddA cd|dcAG AF|G3 DFA|
G2 GFGA|dcAG AF|G2 GFGA|1 d4 Ac:|2 d6||

